img/ExtremeBanner.svg

<svg width="309" height="71" viewBox="0 0 309 71" fill="none" xmlns="http://www.w3.org/2000/svg">
<g filter="url(#filter0_dd_1602_9546)">
<path d="M11.0519 6.39005C102.134 9.01551 168.674 9.46144 294.191 6.45332L269.174 32.0103L294.199 58.6292C188.536 61.5624 120.201 61.4187 11.0018 58.566L41.3508 31.9594L11.0519 6.39005Z" fill="#651C9F"/>
</g>
<path d="M30.0429 12.0821C119.804 15.2055 181.4 16.4479 278.219 13.1007L256.975 30.2373L255.103 31.7475L256.901 33.3446L277.897 51.9913C187.133 53.9707 128.253 54.14 31.5542 51.9612L51.6244 33.2884L53.3062 31.7237L51.5512 30.2419L30.0429 12.0821Z" fill="#651C9F" stroke="#FFEF60" stroke-width="4.07233"/>
<defs>
<filter id="filter0_dd_1602_9546" x="0.82088" y="0.28164" width="307.632" height="70.6673" filterUnits="userSpaceOnUse" color-interpolation-filters="sRGB">
<feFlood flood-opacity="0" result="BackgroundImageFix"/>
<feColorMatrix in="SourceAlpha" type="matrix" values="0 0 0 0 0 0 0 0 0 0 0 0 0 0 0 0 0 0 127 0" result="hardAlpha"/>
<feOffset dx="14.2532"/>
<feColorMatrix type="matrix" values="0 0 0 0 0 0 0 0 0 0 0 0 0 0 0 0 0 0 0.25 0"/>
<feBlend mode="normal" in2="BackgroundImageFix" result="effect1_dropShadow_1602_9546"/>
<feColorMatrix in="SourceAlpha" type="matrix" values="0 0 0 0 0 0 0 0 0 0 0 0 0 0 0 0 0 0 127 0" result="hardAlpha"/>
<feOffset dx="-2.03617" dy="2.03617"/>
<feGaussianBlur stdDeviation="4.07233"/>
<feColorMatrix type="matrix" values="0 0 0 0 0 0 0 0 0 0 0 0 0 0 0 0 0 0 0.25 0"/>
<feBlend mode="normal" in2="effect1_dropShadow_1602_9546" result="effect2_dropShadow_1602_9546"/>
<feBlend mode="normal" in="SourceGraphic" in2="effect2_dropShadow_1602_9546" result="shape"/>
</filter>
</defs>
</svg>

<svg width="309" height="71" fill="none" xmlns="http://www.w3.org/2000/svg"><g filter="url(#a)"><path d="M11.05 6.39c91.08 2.63 157.62 3.07 283.14.06l-25.02 25.56 25.03 26.62c-105.66 2.93-174 2.79-283.2-.06l30.35-26.61-30.3-25.57Z" fill="#651C9F"/></g><path d="M30.04 12.08c89.76 3.13 151.36 4.37 248.18 1.02l-21.25 17.14-1.87 1.5 1.8 1.6 21 18.65c-90.77 1.98-149.65 2.15-246.35-.03L51.62 33.3l1.69-1.57-1.76-1.48-21.5-18.16Z" fill="#651C9F" stroke="#FFEF60" stroke-width="4.07"/><defs><filter id="a" x=".82" y=".28" width="307.63" height="70.67" filterUnits="userSpaceOnUse" color-interpolation-filters="sRGB"><feFlood flood-opacity="0" result="BackgroundImageFix"/><feColorMatrix in="SourceAlpha" values="0 0 0 0 0 0 0 0 0 0 0 0 0 0 0 0 0 0 127 0" result="hardAlpha"/><feOffset dx="14.25"/><feColorMatrix values="0 0 0 0 0 0 0 0 0 0 0 0 0 0 0 0 0 0 0.25 0"/><feBlend in2="BackgroundImageFix" result="effect1_dropShadow_1602_9546"/><feColorMatrix in="SourceAlpha" values="0 0 0 0 0 0 0 0 0 0 0 0 0 0 0 0 0 0 127 0" result="hardAlpha"/><feOffset dx="-2.04" dy="2.04"/><feGaussianBlur stdDeviation="4.07"/><feColorMatrix values="0 0 0 0 0 0 0 0 0 0 0 0 0 0 0 0 0 0 0.25 0"/><feBlend in2="effect1_dropShadow_1602_9546" result="effect2_dropShadow_1602_9546"/><feBlend in="SourceGraphic" in2="effect2_dropShadow_1602_9546" result="shape"/></filter></defs></svg>
